X: 696
T: Age Made Him Old
R: jig
M: 6/8
K: Dmajor
A|ABA BGF|Eed cAF|BdB efe|
dcB A2G|FGA Bcd|ege dcB|
dFG Afd|Bec d3|dcB A3|
BAG FDE|FGA Bgf|edc d2||

